X:1
T:Super flumina Babylonis
T:Palestrina
T:Super flumina Babylonis
T:Copyright © 2016 by CPDL.  This edition can be fully distributed, duplicated, performed, and recorded. 
T:Copyright © 2016 by CPDL.  This edition can be fully distributed, duplicated, performed, and recorded. 
T:Copyright © 2016 by CPDL.  This edition can be fully distributed, duplicated, performed, and recorded. 
T:Copyright © 2016 by CPDL.  This edition can be fully distributed, duplicated, performed, and recorded. 
T:Copyright © 2016 by CPDL.  This edition can be fully distributed, duplicated, performed, and recorded. 
T:Copyright © 2016 by CPDL.  This edition can be fully distributed, duplicated, performed, and recorded. 
T:Copyright © 2016 by CPDL.  This edition can be fully distributed, duplicated, performed, and recorded. 
T:Copyright © 2016 by CPDL.  This edition can be fully distributed, duplicated, performed, and recorded. 
C:Palestrina
Z:Copyright © 2016 by CPDL.  This edition can be fully distributed, duplicated, performed, and recorded.
Z:
%%score [ 1 2 3 4 ]
L:1/8
Q:1/2=92
M:4/2
K:C
V:1 treble nm="Soprano" snm="S."
V:2 treble nm="Alto" snm="A."
V:3 treble-8 transpose=-12 nm="Tenor" snm="T."
V:4 bass nm="Baritone" snm="Bar."
V:1
"^Psalm 137: On the Babylonian river we sat and wept when we remembered thee, Zion.   On the aspens of that land,we hung up our harps." z16 | %1
w: |
 z16 | z16 | z16 | z8 A8- | A8 A8 | ^G6 G2 A4 c4- | c2 B2 A8 G4 | F8 E4 E4 | F4 E8 D4 | E8 c6 B2 | %11
w: |||Su-|* per|flu- mi- na Ba-|* * * by-|lo- nis, su-|per flu- mi-|na Ba- *|
 A2 G2 c8 B4- | B2 A2 A6 ^G2 G4 | A4 E8 F4 | G12 G4 | G4 E8 F4- | F4 E2 D2 F4 G4 | A4 E8 F4 | %18
w: |* by lo- * *|nis, il- lic|se- di-|mus, et fle-|* * * * vi-|mus, il- lic|
 G12 A4 | B16 | z4 B8 c4- | c4 B4 A6 A2 | ^G16 | z4 E4 =G4 A4- | A4 G4 c4 B4 | A8 G4 F4 | E8 z8 | %27
w: se- di-|mus,|et fle-|* * * vi-|mus,|dum re- cor-|* da- re- mur|tu- i, Si-|on,|
 z16 | z4 E4 G4 A4- | A4 G4 c8- | c4 B4 A6 G2 | A2 B2 c4 B2 A2 A4- | A4 ^G4 A8- | A16 | z16 | %35
w: |dum re- cor-|* da- re-|* mur tu- *|* * * * * i,|_ Si- on,|_||
 z4 E4 G4 A4- | A4 G4 c4 B4 | A8 G4 F4 | E8 z8 | z16 | z4 A8 B4 | c6 c2 c4 B4- | B4 A6 A2 ^G4 | %43
w: dum re- cor-|* da- re- mur|tu- i, Si-|on,||in sa-|li- ci- bus in|_ me- di- o|
 A16 | =G4 G4 F4 E4 | F4 A8 ^G4 | A12 =G2 F2 | E4 C4 D8- | D8 z8 | z8 z4 A4- | A4 B4 c6 c2 | %51
w: e-|jus, in me- di-|o e- *|jus, _ _|_ _ _||in|_ sa- li- ci-|
 c4 B8 A4- | A2 A2 ^G4 A8 | =G16- | G16 | z16 | z8 z4 B4 | c6 B2 A4 B4- | B2 A2 G4 A2 G2 G4- | %59
w: bus in me-|* di- o e-|jus,|_||su-|spen- di- mus or-|* ga- na no- * *|
 G2 ^FE F4 G6 =F2 | E4 A6 A2 ^G4 | A16 | A8 z8 | z16 | z8 z4 d4 | e6 d2 c4 d4- | %66
w: * * * * stra, _|_ or- ga- na|no-|stra,||su-|spen- di- mus or-|
 d2 c2 B4 c2 B2 A4- | A4 ^G4 A8 | z4 c6 c2 B4 | A16 | ^G16 |] %71
w: * ga- na no- * *|* * stra,|or- ga- na|no-|stra.|
V:2
 z16 | z16 | E16 | E8 D6 D2 | E8 z4 F4- | F2 E2 D8 C4 | B,8 A,6 B,2 | C2 D2 E2 C2 F4 E4- | %8
w: ||Su-|per flu- mi-|na Ba-|* * * by-|lo- * *||
 E4 D4 E4 A,4 | C4 C8 B,2 A,2 | B,4 B,4 E4 E4- | E2 D2 C2 B,2 A,4 B,4 | C4 B,2 A,2 B,8 | %13
w: * * nis, su-|per flu- * *|* mi- na Ba-|* * * * * ly-|lo- * * *|
 A,4 ^C8 D4 | E12 E4 | E8 ^C8 | D12 D4 | ^C4 C8 D4 | E12 E4 | G16 | z4 G8 E4- | E4 D2 C2 D4 D4 | %22
w: nis, il- lic|se- di-|mus, et|fle- vi-|mus, il- lic|se- di-|mus,|et fle-|* * * * vi-|
 E8 z4 E4 | D4 C4 B,4 A,2 B,2 | C2 D2 E8 E4 | F8 E4 D4 | C4 B,2 A,2 B,4 A,4 | E16- | E8 z8 | %29
w: mus, dum|re- cor- da- re- *|* * * mur|tu- i, Si-|on, _ _ _ _|_||
 z8 z4 A,4 | C4 D8 C4 | F4 E4 D8 | C4 B,4 A,2 B,2 C2 D2 | E4 F8 E4 | D4 C4 B,8 | E16- | E16 | %37
w: dum|re- cor- da-|re- mur tu-|i, Si- on, _ _ _|_ dum re-|cor- da- re-|mur|_|
 F8 E4 D4 | ^C4 E8 F4 | G6 G2 G8- | G4 F4 E6 E2 | E16 | z4 D8 E4 | F6 F2 F4 E4- | E4 D6 D2 ^C4 | %45
w: tu- i, Si-|on: in sa-|li- ci- bus|_ in me- di-|o,|in sa-|li- ci- bus in-|* me- di- o|
 D6 =C2 B,8 | A,8 z4 E4- | E4 F4 G6 G2 | G4 F8 E4- | E2 E2 D4 E4 F4- | F4 E2 D2 C4 E4 | %51
w: e- * *|jus, in|_ sa- li- ci-|bus in me-|* di- o e- jus,|_ _ _ _ in|
 F4 G4 E4 F4- | F4 E8 D4 | E16 | z4 D4 E6 D2 | C4 D6 C2 B,4 | C2 B,2 A,6 ^G,2 G,4 | A,4 E4 F6 E2 | %58
w: me- di- o e-||jus,|su- spen- di-|mus or- ga- na|no- * * * *|stra, su- spen- di-|
 D4 E6 D2 D4 | E4 D2 C2 B,2 A,2 G,4 | A,8 z4 E4 | C4 F4 E8 | ^F4 F4 G6 =F2 | E4 F6 E2 D4 | %64
w: mus or- ga- na|no- * * * * *|stra, or-|ga- na no-|stra, su- spen- di-|mus or- ga- na|
 E2 D2 C6 B,A, B,4 | C4 G4 A6 G2 | F4 G6 F2 E4 | E8 C4 F4- | F4 E4 E8 | F16 | E16 |] %71
w: no- * * * * *|stra, su- spen- di-|mus or- ga- na|no- stra, or-|* ga- na|no-|stra.|
V:3
 z16 | z16 | z16 | z16 | z16 | z16 | z16 | z16 | z8 A8- | A8 A8 | ^G6 G2 A4 c4- | c2 B2 A8 =G4 | %12
w: ||||||||Su-|* per|flu- mi- na Ba-|* * * by-|
 F8 E8 | z4 A8 A4 | c12 c4 | c4 G4 A6 G2 | F8 D8 | E4 A8 d4 | =c4 B2 A2 B4 c4 | d16- | d8 e8 | %21
w: lo- nis,|il- lic|se- di-|mus, et fle- *|* vi-|mus, il- lic|se- * * * di-|mus,|_ et|
 A12 A4 | B16 | z4 A4 =G4 F4- | F4 E4 A4 G4 | F8 c4 d4 | A4 e4 d4 c4- | c4 B4 A4 G4 | c8 B4 A4 | %29
w: fle- vi-|mus,|dum re- cor-|* da- re- mur|tu- i, Si-|on, dum re- cor-|* da- re- mur|tu- i, Si-|
 B4 e6 d2 c2 B2 | A4 G4 F6 E2 | D4 C4 D8 | E4 E4 A8 | z8 z4 E4 | G4 A8 G4 | c16 | B8 A4 G4 | %37
w: on, tu- * * *|* i, tu- *||i, Si- on,|dum|re- cor- da-|re-|mur tu- i|
 F8 G8 | A8 ^c8 | d4 e6 e2 e4 | d4 c6 c2 B4- | B2 A2 A8 ^G4 | A4 D4 F4 E4 | D8 F2 G2 A2 B2 | %44
w: Si- *|on, in|sa- li- ci- bus|in me- di- o|_ _ _ e-|jus, in me- di-|o e- * * *|
 c4 G4 A8 | D8 z8 | z4 A8 B4 | c6 c2 c4 B4- | B4 A6 A2 ^G4 | A6 B2 c2 B2 A2 =G2 | F4 G4 A4 A4 | %51
w: |jus,|in sa-|lu- ci- bus in|_ me- di- o|e- * * * * *|* * jus, in|
 A4 B4 c4 d4 | B8 A6 B2 | c4 B4 c4 B2 A2 | B8 z4 G4 | A6 G2 F4 G4- | G2 F2 E4 D8 | E4 c4 d6 c2 | %58
w: me- di- o e-|jus, _ _|_ _ _ _ _|* su-|spen- di- mus or-|* ga- na no-|stra, su- spen- di-|
 B4 c6 B2 B4 | A8 G4 c4- | c2 B2 A4 B8 | A4 d8 ^c4 | d8 B8 | c6 B2 A4 B4- | B2 A2 G4 A4 F4 | %65
w: mus or- ga- na|no- stra, or-|* ga- na no-|stra, no- *|stra, su-|spen- di- mus or-|* ga- na no- *|
 G4 e4 f6 e2 | d4 e6 d2 c4 | B8 A4 d4- | d4 c2 B2 A4 B4 | c8 d8 | B16 |] %71
w: stra, su- spen- di-|mus or- ga- na|no- stra, no-|||stra.|
V:4
 A,16 | A,8 ^G,6 G,2 | A,4 C6 B,2 A,4- | A,4 G,4 F,8 | E,8 D,6 E,2 | F,6 G,2 A,8 | E,8 F,6 G,2 | %7
w: Su-|per flu- mi-|na Ba- * *|* by- lo-|nis, Ba- *||by- lo- *|
 A,8 F,4 G,4 | A,4 B,4 C6 B,2 | A,6 G,2 F,8 | E,8 A,,8 | z16 | z16 | z4 A,,8 D,4 | C,12 C,4 | %15
w: * nis, Ba-|* by- lo- *||* nis,|||il- lic|se- di-|
 C,8 A,,8 | _B,,12 B,,4 | A,,8 z8 | z4 E,8 A,4 | G,12 G,4 | G,8 E,8 | F,12 F,4 | E,16 | z16 | z16 | %25
w: mus, et|fle- vi-|mus,|il- lic|se- di-|mus et|fle- vi-|mus,|||
 z16 | z4 E,4 G,4 A,4- | A,4 G,4 C4 B,4 | A,8 G,4 F,4 | E,8 A,,8 | z16 | z16 | z8 z4 A,,4 | %33
w: |dum re- cor-|* da- re- mur|tu- i, Si-|on, _|||dum|
 C,4 D,8 C,4 | B,,4 A,,4 E,8 | C,12 A,,4 | E,8 z8 | z16 | z8 A,8 | B,4 =C6 C2 C4 | %40
w: re- cor- da-|re- mur tu-|i, Si-|on,||in|sa- li- ci- bus|
 B,4 A,6 A,2 ^G,4 | A,8 E,8 | z16 | z16 | z16 | z4 D,8 E,4 | F,6 F,2 F,4 E,4 | A,6 A,2 G,8 | %48
w: in me- di- o|e- jus,||||in sa-|li- ci- bus, in|me- di- o|
 D,8 E,8 | F,6 E,D, C,4 D,4- | D,4 C,2 B,,2 A,,8 | z8 z4 D,4 | D,4 E,4 F,8 | E,8 C,2 D,2 E,2 F,2 | %54
w: e- jus,|e- * * * *|* * * jus,|in|me- di- o|e- jus, _ _ _|
 G,8 z4 E,4 | F,6 E,2 D,4 E,4- | E,2 D,2 C,4 B,,8 | A,,8 z8 | z16 | z4 D,4 E,6 D,2 | %60
w: _ su-|spen- di- mus or-|* ga- na no-|stra,||su- spen- di-|
 C,4 D,6 D,2 E,4 | F,6 G,2 A,8 | D,8 G,8 | A,6 G,2 F,4 G,4- | G,2 F,2 E,4 D,8 | C,8 z8 | z16 | %67
w: mus or- ga- na|no- * *|stra, su-|spen- di- mus or-|* ga- na no-|stra,||
 E,8 F,6 E,2 | D,4 A,6 A,2 G,4 | F,8 D,8 | E,16 |] %71
w: su- spen- di-|mus or- ga- na|no- *|stra.|

